src/resources/mandatory/M035.svg

<svg height="264.567" width="264.568" xmlns="http://www.w3.org/2000/svg"><g fill-rule="evenodd"><path d="m0 0c54.79 0 99.213 44.438 99.213 99.177 0 54.81-44.423 99.248-99.213 99.248s-99.213-44.438-99.213-99.248c0-54.739 44.423-99.177 99.213-99.177" fill="#005387" transform="matrix(1.33333 0 0 -1.33333 132.284 264.567)"/><g fill="#ecece7"><path d="m0 0 5.779 3.277.42-5.777z" transform="matrix(1.33333 0 0 -1.33333 119.15 200.527)"/><path d="m0 0 .638-9.085-2.347-.559-2.362-.497-2.377-.419-.917 12.967 4.336-1.77.731-.265.76-.186.762-.124z" transform="matrix(1.33333 0 0 -1.33333 158.264 225.227)"/><path d="m0 0 2.409-.234 2.408-.155 2.409-.078-1.414 20.234-7.412 3.029z" transform="matrix(1.33333 0 0 -1.33333 120.35 240.05)"/><path d="m0 0-4.988 71.075-2.393-.419-2.362-.498-2.346-.558 4.894-69.6z" transform="matrix(1.33333 0 0 -1.33333 121.512 120.047)"/><path d="m0 0-16.844 15.809-6.371-6.786 16.859-15.792z" transform="matrix(1.33333 0 0 -1.33333 204.86 157.792)"/><path d="m0 0 6.743 6.459-3.729 52.922-2.409.233-2.408.155-2.408.078z" transform="matrix(1.33333 0 0 -1.33333 140.137 103.69)"/><path d="m0 0-4.056 57.69-4.117-3.96v-26.027l-.031-.667-.094-.668-.155-.652-.202-.637-.264-.605 1.507-21.492z" transform="matrix(1.33333 0 0 -1.33333 157.623 216.076)"/><path d="m0 0-1.818 25.778h-7.194l2.082-29.691z" transform="matrix(1.33333 0 0 -1.33333 125.324 174.252)"/><path d="m0 0v31.57h-31.232v10.622h27.067l21.444 20.513-1.897 26.896 9.278.652 1.491-21.368 13.534-14.146.326-.372.295-.42.233-.45.187-.466.14-.497.078-.497.03-.512v-23.092h-9.292v18.65l-21.054-20.14v-26.943z" transform="matrix(1.33333 0 0 -1.33333 129.716 179.139)"/><path d="m0 0-4.77 7.981-19.827-11.848 4.77-7.981z" transform="matrix(1.33333 0 0 -1.33333 186.027 48.76)"/><path d="m0 0 .031.155-.031.156-.078.124-.14.093-.155.031-.14-.031-.87-.403-.855-.466-.807-.513-.778-.559-.73-.621-.699-.652-.653-.699-.606-.745-.559-.792-.295-.482-.249-.513-.202-.512-.155-.543-.093-.559-.062-.559v-.574l.03-.56.109-.559.14-.544.186-.527 22.36-54.661-21.054 8.51-.094-2.236 22.314-9.131 9.882-24.148 2.237.078-9.245 22.906 56.482-23.108.544-.201.544-.14.56-.093.558-.047.56.015.559.047.56.109.544.155.528.202.513.248.481.295.778.544.745.621.699.652.669.683.605.746.56.777.513.807.466.839.404.869.031.155-.031.156-.093.139-.125.079-.155.031-.156-.031-1.958-.824-.481-.792-.513-.745-.59-.715-.622-.668-.683-.635-.715-.56-.404-.264-.435-.217-.451-.171-.466-.109-.482-.062-.482-.016-.466.047-.481.108-.451.156-33.158 13.401 20.727 11.739-5.221 9.241-28.093-15.886-13.083 5.279-4.802 11.864 16.611 28.325-9.152 5.373-12.478-21.259-13.222 32.687-.156.466-.093.466-.062.481.015.482.062.481.109.466.171.45.217.435.265.404.574.714.622.668.668.637.715.574.761.528.778.466z" transform="matrix(1.33333 0 0 -1.33333 54.987 98.224)"/><path d="m0 0 12.804 11.942-12.804 11.957h-9.043l9.013-8.402h-26.307v-7.096h26.307l-9.013-8.401z" transform="matrix(1.33333 0 0 -1.33333 204.237 209.077)"/><path d="m0 0-.016.512-.094.512-.14.513-.202.482-.248.45-.31.419-.343.388-.388.358-.42.295-.465.248-.482.202-.498.155-.513.078-.528.031-.513-.031-.512-.078-.497-.155-.483-.202-.466-.248-.419-.295-.388-.358-.342-.388-.311-.419-.249-.45-.202-.482-.139-.513-.093-.512-.031-.512.031-.528.093-.513.139-.496.202-.482.249-.45.311-.435.342-.388.388-.342.419-.31.466-.249.483-.201.497-.14.512-.093.513-.016.528.016.513.093.498.14.482.201.465.249.42.31.388.342.343.388.31.435.248.45.202.482.14.496.094.513z" transform="matrix(1.33333 0 0 -1.33333 162.596 59.236)"/><path d="m0 0-.03.528-.094.512-.139.497-.203.482-.249.45-.31.435-.342.388-.388.342-.419.31-.466.249-.483.201-.497.14-.512.093-.513.032-.529-.032-.512-.093-.497-.14-.483-.201-.466-.249-.419-.31-.388-.342-.342-.388-.311-.435-.249-.45-.202-.482-.139-.497-.094-.512-.03-.528.03-.513.094-.512.139-.512.202-.482.249-.45.311-.419.342-.388.388-.358.419-.295.466-.248.483-.202.497-.14.512-.093.529-.031.513.031.512.093.497.14.483.202.466.248.419.295.388.358.342.388.31.419.249.45.203.482.139.512.094.512z" transform="matrix(1.33333 0 0 -1.33333 189.05 43.438)"/><path d="m0 0-.032.513-.077.513-.139.511-.202.482-.249.45-.311.42-.342.388-.389.357-.434.295-.451.264-.482.186-.497.155-.512.079-.529.031-.512-.031-.513-.079-.497-.155-.483-.186-.465-.264-.42-.295-.388-.357-.358-.388-.295-.42-.248-.45-.203-.482-.139-.511-.094-.513-.031-.513.031-.528.094-.512.139-.497.203-.481.248-.45.295-.435.358-.389.388-.342.42-.294.465-.264.483-.202.497-.14.513-.078.512-.031.529.031.512.078.497.14.482.202.451.264.434.294.389.342.342.389.311.435.249.45.202.481.139.497.077.512z" transform="matrix(1.33333 0 0 -1.33333 206.807 162.305)"/><path d="m0 0-.03.513-.094.512-.14.513-.202.481-.248.451-.296.419-.357.388-.389.357-.419.296-.45.248-.482.202-.513.139-.513.093-.513.031-.528-.031-.513-.093-.497-.139-.482-.202-.45-.248-.435-.296-.388-.357-.342-.388-.296-.419-.264-.451-.186-.481-.156-.513-.078-.512-.031-.513.031-.527.078-.513.156-.497.186-.482.264-.465.296-.419.342-.388.388-.342.435-.31.45-.249.482-.203.497-.139.513-.093.528-.031.513.031.513.093.513.139.482.203.45.249.419.31.389.342.357.388.296.419.248.465.202.482.14.497.094.513z" transform="matrix(1.33333 0 0 -1.33333 184.348 141.228)"/><path d="m0 0-.03.73-.078.73-.14.714-.202.699-.248.684-.312.667-.357.637-.404.605-.451.575-.497.543-.528.497-.575.451-.606.403-.637.357-.668.295-.684.265-.699.186-.715.155-.731.078-.73.031-.73-.031-.73-.078-.715-.155-.699-.186-.684-.265-.652-.295-.638-.357-.621-.403-.559-.451-.544-.497-.497-.543-.451-.575-.404-.605-.357-.637-.311-.667-.249-.684-.202-.699-.14-.714-.078-.73-.031-.73.031-.729.078-.715.14-.714.202-.699.249-.699.311-.652.357-.637.404-.606.451-.574.497-.543.544-.497.559-.451.621-.403.638-.357.652-.296.684-.264.699-.202.715-.139.73-.078.73-.031.73.031.731.078.715.139.699.202.684.264.668.296.637.357.606.403.575.451.528.497.497.543.451.574.404.606.357.637.312.652.248.699.202.699.14.714.078.715z" transform="matrix(1.33333 0 0 -1.33333 196.737 84.91)"/><path d="m0 0-.016.559-.093.544-.14.543-.202.512-.248.497-.311.466-.342.435-.404.388-.435.357-.466.295-.482.264-.528.187-.528.155-.56.077-.543.032-.56-.032-.544-.077-.544-.155-.512-.187-.498-.264-.466-.295-.435-.357-.389-.388-.357-.435-.295-.466-.264-.497-.187-.512-.155-.543-.078-.544-.031-.559.031-.559.078-.543.155-.544.187-.512.264-.497.295-.466.357-.435.389-.388.435-.358.466-.295.498-.248.512-.202.544-.139.544-.094.56-.031.543.031.56.094.528.139.528.202.482.248.466.295.435.358.404.388.342.435.311.466.248.497.202.512.14.544.093.543z" transform="matrix(1.33333 0 0 -1.33333 95.138 129.964)"/><path d="m0 0-.031.56-.093.543-.14.544-.203.511-.248.498-.294.465-.358.435-.389.389-.435.357-.466.295-.497.248-.513.202-.544.14-.544.094-.559.031-.56-.031-.544-.094-.543-.14-.513-.202-.497-.248-.466-.295-.435-.357-.388-.389-.342-.435-.312-.465-.248-.498-.202-.511-.14-.544-.093-.543-.031-.56.031-.558.093-.544.14-.543.202-.513.248-.497.312-.466.342-.434.388-.389.435-.357.466-.295.497-.264.513-.187.543-.155.544-.077.56-.031.559.031.544.077.544.155.513.187.497.264.466.295.435.357.389.389.358.434.294.466.248.497.203.513.14.543.093.544z" transform="matrix(1.33333 0 0 -1.33333 143.887 179.139)"/></g></g></svg>

<?xml version="1.0" encoding="UTF-8" standalone="no"?>
<svg
   height="264.56601"
   width="264.56735"
   version="1.1"
   id="svg21"
   xmlns="http://www.w3.org/2000/svg"
   xmlns:svg="http://www.w3.org/2000/svg">
  <defs
     id="defs21" />
  <g
     fill-rule="evenodd"
     id="g21"
     transform="translate(-3.3071e-4,-9.9475e-4)">
    <path
       d="m 0,0 c 54.79,0 99.213,44.438 99.213,99.177 0,54.81 -44.423,99.248 -99.213,99.248 -54.79,0 -99.213,-44.438 -99.213,-99.248 C -99.213,44.438 -54.79,0 0,0"
       fill="#005387"
       transform="matrix(1.33333,0,0,-1.33333,132.284,264.567)"
       id="path1" />
    <g
       fill="#ecece7"
       id="g20">
      <path
         d="M 0,0 5.779,3.277 6.199,-2.5 Z"
         transform="matrix(1.33333,0,0,-1.33333,119.15,200.527)"
         id="path2" />
      <path
         d="m 0,0 0.638,-9.085 -2.347,-0.559 -2.362,-0.497 -2.377,-0.419 -0.917,12.967 4.336,-1.77 0.731,-0.265 0.76,-0.186 0.762,-0.124 z"
         transform="matrix(1.33333,0,0,-1.33333,158.264,225.227)"
         id="path3" />
      <path
         d="M 0,0 2.409,-0.234 4.817,-0.389 7.226,-0.467 5.812,19.767 -1.6,22.796 Z"
         transform="matrix(1.33333,0,0,-1.33333,120.35,240.05)"
         id="path4" />
      <path
         d="M 0,0 -4.988,71.075 -7.381,70.656 -9.743,70.158 -12.089,69.6 -7.195,0 Z"
         transform="matrix(1.33333,0,0,-1.33333,121.512,120.047)"
         id="path5" />
      <path
         d="M 0,0 -16.844,15.809 -23.215,9.023 -6.356,-6.769 Z"
         transform="matrix(1.33333,0,0,-1.33333,204.86,157.792)"
         id="path6" />
      <path
         d="m 0,0 6.743,6.459 -3.729,52.922 -2.409,0.233 -2.408,0.155 -2.408,0.078 z"
         transform="matrix(1.33333,0,0,-1.33333,140.137,103.69)"
         id="path7" />
      <path
         d="M 0,0 -4.056,57.69 -8.173,53.73 V 27.703 L -8.204,27.036 -8.298,26.368 -8.453,25.716 -8.655,25.079 -8.919,24.474 -7.412,2.982 Z"
         transform="matrix(1.33333,0,0,-1.33333,157.623,216.076)"
         id="path8" />
      <path
         d="M 0,0 -1.818,25.778 H -9.012 L -6.93,-3.913 Z"
         transform="matrix(1.33333,0,0,-1.33333,125.324,174.252)"
         id="path9" />
      <path
         d="m 0,0 v 31.57 h -31.232 v 10.622 h 27.067 l 21.444,20.513 -1.897,26.896 9.278,0.652 1.491,-21.368 13.534,-14.146 0.326,-0.372 0.295,-0.42 0.233,-0.45 0.187,-0.466 0.14,-0.497 0.078,-0.497 0.03,-0.512 V 28.433 h -9.292 v 18.65 L 10.628,26.943 V 0 Z"
         transform="matrix(1.33333,0,0,-1.33333,129.716,179.139)"
         id="path10" />
      <path
         d="m 0,0 -4.77,7.981 -19.827,-11.848 4.77,-7.981 z"
         transform="matrix(1.33333,0,0,-1.33333,186.027,48.76)"
         id="path11" />
      <path
         d="M 0,0 0.031,0.155 0,0.311 -0.078,0.435 -0.218,0.528 -0.373,0.559 -0.513,0.528 -1.383,0.125 -2.238,-0.341 -3.045,-0.854 -3.823,-1.413 -4.553,-2.034 -5.252,-2.686 -5.905,-3.385 -6.511,-4.13 -7.07,-4.922 -7.365,-5.404 -7.614,-5.917 -7.816,-6.429 -7.971,-6.972 -8.064,-7.531 -8.126,-8.09 v -0.574 l 0.03,-0.56 0.109,-0.559 0.14,-0.544 0.186,-0.527 22.36,-54.661 -21.054,8.51 -0.094,-2.236 22.314,-9.131 9.882,-24.148 2.237,0.078 -9.245,22.906 56.482,-23.108 0.544,-0.201 0.544,-0.14 0.56,-0.093 0.558,-0.047 0.56,0.015 0.559,0.047 0.56,0.109 0.544,0.155 0.528,0.202 0.513,0.248 0.481,0.295 0.778,0.544 0.745,0.621 0.699,0.652 0.669,0.683 0.605,0.746 0.56,0.777 0.513,0.807 0.466,0.839 0.404,0.869 0.031,0.155 -0.031,0.156 -0.093,0.139 -0.125,0.079 -0.155,0.031 -0.156,-0.031 -1.958,-0.824 -0.481,-0.792 -0.513,-0.745 -0.59,-0.715 -0.622,-0.668 -0.683,-0.635 -0.715,-0.56 -0.404,-0.264 -0.435,-0.217 -0.451,-0.171 -0.466,-0.109 -0.482,-0.062 -0.482,-0.016 -0.466,0.047 -0.481,0.108 -0.451,0.156 -33.158,13.401 20.727,11.739 -5.221,9.241 -28.093,-15.886 -13.083,5.279 -4.802,11.864 16.611,28.325 -9.152,5.373 -12.478,-21.259 -13.222,32.687 -0.156,0.466 -0.093,0.466 -0.062,0.481 0.015,0.482 0.062,0.481 0.109,0.466 0.171,0.45 0.217,0.435 0.265,0.404 0.574,0.714 0.622,0.668 0.668,0.637 0.715,0.574 0.761,0.528 0.778,0.466 z"
         transform="matrix(1.33333,0,0,-1.33333,54.987,98.224)"
         id="path12" />
      <path
         d="M 0,0 12.804,11.942 0,23.899 H -9.043 L -0.03,15.497 H -26.337 V 8.401 H -0.03 L -9.043,0 Z"
         transform="matrix(1.33333,0,0,-1.33333,204.237,209.077)"
         id="path13" />
      <path
         d="M 0,0 -0.016,0.512 -0.11,1.024 -0.25,1.537 -0.452,2.019 -0.7,2.469 -1.01,2.888 -1.353,3.276 -1.741,3.634 -2.161,3.929 -2.626,4.177 -3.108,4.379 -3.606,4.534 -4.119,4.612 -4.647,4.643 -5.16,4.612 -5.672,4.534 -6.169,4.379 -6.652,4.177 -7.118,3.929 -7.537,3.634 -7.925,3.276 -8.267,2.888 -8.578,2.469 -8.827,2.019 -9.029,1.537 -9.168,1.024 -9.261,0.512 -9.292,0 l 0.031,-0.528 0.093,-0.513 0.139,-0.496 0.202,-0.482 0.249,-0.45 0.311,-0.435 0.342,-0.388 0.388,-0.342 0.419,-0.31 0.466,-0.249 0.483,-0.201 0.497,-0.14 0.512,-0.093 0.513,-0.016 0.528,0.016 0.513,0.093 0.498,0.14 0.482,0.201 0.465,0.249 0.42,0.31 0.388,0.342 0.343,0.388 0.31,0.435 0.248,0.45 0.202,0.482 0.14,0.496 0.094,0.513 z"
         transform="matrix(1.33333,0,0,-1.33333,162.596,59.236)"
         id="path14" />
      <path
         d="M 0,0 -0.03,0.528 -0.124,1.04 -0.263,1.537 -0.466,2.019 -0.715,2.469 -1.025,2.904 -1.367,3.292 -1.755,3.634 -2.174,3.944 -2.64,4.193 -3.123,4.394 -3.62,4.534 -4.132,4.627 -4.645,4.659 -5.174,4.627 -5.686,4.534 -6.183,4.394 -6.666,4.193 -7.132,3.944 -7.551,3.634 -7.939,3.292 -8.281,2.904 -8.592,2.469 -8.841,2.019 -9.043,1.537 -9.182,1.04 -9.276,0.528 -9.306,0 l 0.03,-0.513 0.094,-0.512 0.139,-0.512 0.202,-0.482 0.249,-0.45 0.311,-0.419 0.342,-0.388 0.388,-0.358 0.419,-0.295 0.466,-0.248 0.483,-0.202 0.497,-0.14 0.512,-0.093 0.529,-0.031 0.513,0.031 0.512,0.093 0.497,0.14 0.483,0.202 0.466,0.248 0.419,0.295 0.388,0.358 0.342,0.388 0.31,0.419 0.249,0.45 0.203,0.482 0.139,0.512 0.094,0.512 z"
         transform="matrix(1.33333,0,0,-1.33333,189.05,43.438)"
         id="path15" />
      <path
         d="M 0,0 -0.032,0.513 -0.109,1.026 -0.248,1.537 -0.45,2.019 -0.699,2.469 -1.01,2.889 -1.352,3.277 -1.741,3.634 -2.175,3.929 -2.626,4.193 -3.108,4.379 -3.605,4.534 -4.117,4.613 -4.646,4.644 -5.158,4.613 -5.671,4.534 -6.168,4.379 -6.651,4.193 -7.116,3.929 -7.536,3.634 -7.924,3.277 -8.282,2.889 -8.577,2.469 -8.825,2.019 -9.028,1.537 -9.167,1.026 -9.261,0.513 -9.292,0 l 0.031,-0.528 0.094,-0.512 0.139,-0.497 0.203,-0.481 0.248,-0.45 0.295,-0.435 0.358,-0.389 0.388,-0.342 0.42,-0.294 0.465,-0.264 0.483,-0.202 0.497,-0.14 0.513,-0.078 0.512,-0.031 0.529,0.031 0.512,0.078 0.497,0.14 0.482,0.202 0.451,0.264 0.434,0.294 0.389,0.342 0.342,0.389 0.311,0.435 0.249,0.45 0.202,0.481 0.139,0.497 0.077,0.512 z"
         transform="matrix(1.33333,0,0,-1.33333,206.807,162.305)"
         id="path16" />
      <path
         d="M 0,0 -0.03,0.513 -0.124,1.025 -0.264,1.538 -0.466,2.019 -0.714,2.47 -1.01,2.889 -1.367,3.277 -1.756,3.634 -2.175,3.93 -2.625,4.178 -3.107,4.38 -3.62,4.519 -4.133,4.612 -4.646,4.643 -5.174,4.612 -5.687,4.519 -6.184,4.38 -6.666,4.178 -7.116,3.93 -7.551,3.634 -7.939,3.277 -8.281,2.889 -8.577,2.47 -8.841,2.019 -9.027,1.538 -9.183,1.025 -9.261,0.513 -9.292,0 l 0.031,-0.527 0.078,-0.513 0.156,-0.497 0.186,-0.482 0.264,-0.465 0.296,-0.419 0.342,-0.388 0.388,-0.342 0.435,-0.31 0.45,-0.249 0.482,-0.203 0.497,-0.139 0.513,-0.093 0.528,-0.031 0.513,0.031 0.513,0.093 0.513,0.139 0.482,0.203 0.45,0.249 0.419,0.31 0.389,0.342 0.357,0.388 0.296,0.419 0.248,0.465 0.202,0.482 0.14,0.497 0.094,0.513 z"
         transform="matrix(1.33333,0,0,-1.33333,184.348,141.228)"
         id="path17" />
      <path
         d="M 0,0 -0.03,0.73 -0.108,1.46 -0.248,2.174 -0.45,2.873 -0.698,3.557 -1.01,4.224 -1.367,4.861 -1.771,5.466 -2.222,6.041 -2.719,6.584 -3.247,7.081 -3.822,7.532 -4.428,7.935 -5.065,8.292 -5.733,8.587 -6.417,8.852 -7.116,9.038 -7.831,9.193 -8.562,9.271 -9.292,9.302 -10.022,9.271 -10.752,9.193 -11.467,9.038 -12.166,8.852 -12.85,8.587 -13.502,8.292 -14.14,7.935 -14.761,7.532 -15.32,7.081 -15.864,6.584 -16.361,6.041 -16.812,5.466 -17.216,4.861 -17.573,4.224 -17.884,3.557 -18.133,2.873 -18.335,2.174 -18.475,1.46 -18.553,0.73 -18.584,0 l 0.031,-0.729 0.078,-0.715 0.14,-0.714 0.202,-0.699 0.249,-0.699 0.311,-0.652 0.357,-0.637 0.404,-0.606 0.451,-0.574 0.497,-0.543 0.544,-0.497 0.559,-0.451 0.621,-0.403 0.638,-0.357 0.652,-0.296 0.684,-0.264 0.699,-0.202 0.715,-0.139 0.73,-0.078 0.73,-0.031 0.73,0.031 0.731,0.078 0.715,0.139 0.699,0.202 0.684,0.264 0.668,0.296 0.637,0.357 0.606,0.403 0.575,0.451 0.528,0.497 0.497,0.543 0.451,0.574 0.404,0.606 0.357,0.637 0.312,0.652 0.248,0.699 0.202,0.699 0.14,0.714 0.078,0.715 z"
         transform="matrix(1.33333,0,0,-1.33333,196.737,84.91)"
         id="path18" />
      <path
         d="M 0,0 -0.016,0.559 -0.109,1.103 -0.249,1.646 -0.451,2.158 -0.699,2.655 -1.01,3.121 -1.352,3.556 -1.756,3.944 -2.191,4.301 -2.657,4.596 -3.139,4.86 -3.667,5.047 -4.195,5.202 -4.755,5.279 -5.298,5.311 -5.858,5.279 -6.402,5.202 -6.946,5.047 -7.458,4.86 -7.956,4.596 -8.422,4.301 -8.857,3.944 -9.246,3.556 -9.603,3.121 -9.898,2.655 -10.162,2.158 -10.349,1.646 -10.504,1.103 -10.582,0.559 -10.613,0 l 0.031,-0.559 0.078,-0.543 0.155,-0.544 0.187,-0.512 0.264,-0.497 0.295,-0.466 0.357,-0.435 0.389,-0.388 0.435,-0.358 0.466,-0.295 0.498,-0.248 0.512,-0.202 0.544,-0.139 0.544,-0.094 0.56,-0.031 0.543,0.031 0.56,0.094 0.528,0.139 0.528,0.202 0.482,0.248 0.466,0.295 0.435,0.358 0.404,0.388 0.342,0.435 0.311,0.466 0.248,0.497 0.202,0.512 0.14,0.544 0.093,0.543 z"
         transform="matrix(1.33333,0,0,-1.33333,95.138,129.964)"
         id="path19" />
      <path
         d="M 0,0 -0.031,0.56 -0.124,1.103 -0.264,1.647 -0.467,2.158 -0.715,2.656 -1.009,3.121 -1.367,3.556 -1.756,3.945 -2.191,4.302 -2.657,4.597 -3.154,4.845 -3.667,5.047 -4.211,5.187 -4.755,5.281 -5.314,5.312 -5.874,5.281 -6.418,5.187 -6.961,5.047 -7.474,4.845 -7.971,4.597 -8.437,4.302 -8.872,3.945 -9.26,3.556 -9.602,3.121 -9.914,2.656 -10.162,2.158 -10.364,1.647 -10.504,1.103 -10.597,0.56 -10.628,0 l 0.031,-0.558 0.093,-0.544 0.14,-0.543 0.202,-0.513 0.248,-0.497 0.312,-0.466 0.342,-0.434 0.388,-0.389 0.435,-0.357 0.466,-0.295 0.497,-0.264 0.513,-0.187 0.543,-0.155 0.544,-0.077 0.56,-0.031 0.559,0.031 0.544,0.077 0.544,0.155 0.513,0.187 0.497,0.264 0.466,0.295 0.435,0.357 0.389,0.389 0.358,0.434 0.294,0.466 0.248,0.497 0.203,0.513 0.14,0.543 0.093,0.544 z"
         transform="matrix(1.33333,0,0,-1.33333,143.887,179.139)"
         id="path20" />
    </g>
  </g>
</svg>
